src/pos-icons/blinds-open.svg

<svg height="24" viewBox="0 0 24 24" width="24" xmlns="http://www.w3.org/2000/svg"><path d="m3 2h18c.55 0 1 .45 1 1v2c0 .55-.45 1-1 1h-1v1c0 .55-.45 1-1 1h-6v2.17c1.17.41 2 1.53 2 2.83 0 1.66-1.34 3-3 3s-3-1.34-3-3c0-1.31.84-2.42 2-2.83v-2.17h-6c-.55 0-1-.45-1-1v-1h-1c-.55 0-1-.45-1-1v-2c0-.55.45-1 1-1m9 10c-.55 0-1 .45-1 1s.45 1 1 1 1-.45 1-1-.45-1-1-1z"/></svg>

<?xml version="1.0" encoding="UTF-8"?><!DOCTYPE svg PUBLIC "-//W3C//DTD SVG 1.1//EN" "http://www.w3.org/Graphics/SVG/1.1/DTD/svg11.dtd"><svg xmlns="http://www.w3.org/2000/svg" xmlns:xlink="http://www.w3.org/1999/xlink" version="1.1" id="mdi-blinds-open" width="24" height="24" viewBox="0 0 24 24"><path d="M3 2H21C21.55 2 22 2.45 22 3V5C22 5.55 21.55 6 21 6H20V7C20 7.55 19.55 8 19 8H13V10.17C14.17 10.58 15 11.7 15 13C15 14.66 13.66 16 12 16C10.34 16 9 14.66 9 13C9 11.69 9.84 10.58 11 10.17V8H5C4.45 8 4 7.55 4 7V6H3C2.45 6 2 5.55 2 5V3C2 2.45 2.45 2 3 2M12 12C11.45 12 11 12.45 11 13C11 13.55 11.45 14 12 14C12.55 14 13 13.55 13 13C13 12.45 12.55 12 12 12Z" /></svg>
